X: 1
T: Miners' Jig, The
C: J-51
M: 6/8
Z: Transcribed to abc by Mary Lou Knack
R: jig
P: E Dorian
K: EDor
"Em"g3 edB| BAB "A7"EFG| "D"F/G/AF DFA| dAF Adf|
"Em"g3 edB| BAB EFG| "C"B/c/dB "B7"AGF| GE=C "Em"[B,3E3]:|
|:\
"Em"e3 Beg| bge "A7"gfe| "D"d3 Adf| afd "B7"fed|
"Em"e3 Beg| bge gfe| "C"B/c/dB "B7"AGF| GE=C "Em"[B,3E3]:|
%%text 9/1/98
